app/assets/images/heroicons/micro/h2.svg

<svg width="16" height="16" viewBox="0 0 16 16" fill="none" xmlns="http://www.w3.org/2000/svg">
<path fill-rule="evenodd" clip-rule="evenodd" d="M1.75 3C2.16421 3 2.5 3.33579 2.5 3.75V7.25H6.5V3.75C6.5 3.33579 6.83579 3 7.25 3C7.66421 3 8 3.33579 8 3.75V12.25C8 12.6642 7.66421 13 7.25 13C6.83579 13 6.5 12.6642 6.5 12.25V8.75H2.5V12.25C2.5 12.6642 2.16421 13 1.75 13C1.33579 13 1 12.6642 1 12.25V3.75C1 3.33579 1.33579 3 1.75 3ZM12.5 7.5C11.942 7.5 11.3939 7.54057 10.8584 7.61881C10.4486 7.67869 10.0678 7.39498 10.0079 6.98512C9.94799 6.57526 10.2317 6.19445 10.6416 6.13457C11.2486 6.04587 11.8692 6 12.5 6C12.8289 6 13.155 6.01247 13.4779 6.03698C14.2855 6.09829 14.9504 6.74134 14.9901 7.57964C14.9967 7.71898 15 7.85913 15 8C15 8.25126 14.9894 8.50022 14.9686 8.74642C14.9092 9.44778 14.416 9.98522 13.8101 10.1872L11.6709 10.9003C11.5689 10.9343 11.5 11.0298 11.5 11.1374V11.5H14.25C14.6642 11.5 15 11.8358 15 12.25C15 12.6642 14.6642 13 14.25 13H10.75C10.3358 13 10 12.6642 10 12.25V11.1374C10 10.3842 10.482 9.71543 11.1966 9.47723L13.3358 8.76417C13.4362 8.7307 13.4705 8.66054 13.4739 8.62001C13.4912 8.4158 13.5 8.20902 13.5 8C13.5 7.88281 13.4972 7.76633 13.4917 7.65061C13.4892 7.59775 13.4464 7.5389 13.3644 7.53268C13.0792 7.51103 12.791 7.5 12.5 7.5Z" fill="black"/>
</svg>

<svg xmlns="http://www.w3.org/2000/svg" viewBox="0 0 16 16" fill="currentColor" aria-hidden="true" data-slot="icon">
  <path fill-rule="evenodd" d="M1.75 3a.75.75 0 0 1 .75.75v3.5h4v-3.5a.75.75 0 0 1 1.5 0v8.5a.75.75 0 0 1-1.5 0v-3.5h-4v3.5a.75.75 0 0 1-1.5 0v-8.5A.75.75 0 0 1 1.75 3ZM12.5 7.5c-.558 0-1.106.04-1.642.119a.75.75 0 0 1-.216-1.484 12.848 12.848 0 0 1 2.836-.098A1.629 1.629 0 0 1 14.99 7.58a8.884 8.884 0 0 1-.021 1.166c-.06.702-.553 1.24-1.159 1.441l-2.14.713a.25.25 0 0 0-.17.237v.363h2.75a.75.75 0 0 1 0 1.5h-3.5a.75.75 0 0 1-.75-.75v-1.113a1.75 1.75 0 0 1 1.197-1.66l2.139-.713c.1-.033.134-.103.138-.144a7.344 7.344 0 0 0 .018-.97c-.003-.052-.046-.111-.128-.117A11.417 11.417 0 0 0 12.5 7.5Z" clip-rule="evenodd"/>
</svg>
